Adwaita++-Dark/actions/16/dialog-error.svg

<svg height="16" viewBox="0 0 16 16" width="16" xmlns="http://www.w3.org/2000/svg">
  <path d="m8 1.0039062c-3.866 0-7 3.1340001-7 7 0 3.8658998 3.134 6.9999998 7 6.9999998s7-3.1341 7-6.9999998c0-3.8659999-3.134-7-7-7zm-1 3h2v5h-2zm1 5.75c.69036 0 1.25.5596398 1.25 1.2499998s-.55964 1.25-1.25 1.25-1.25-.55964-1.25-1.25.55964-1.2499998 1.25-1.2499998z" fill="#4285f4"/>
</svg>

<svg xmlns="http://www.w3.org/2000/svg" width="16" height="16" version="1.1" viewBox="0 0 16 16">
 <defs>
  <style id="current-color-scheme" type="text/css">
   .ColorScheme-Text { color:#E6DDFF; } .ColorScheme-Highlight { color:#4285f4; }
  </style>
 </defs>
 <path class="ColorScheme-Highlight" d="M 8 1.0039062 C 4.134 1.0039062 1 4.1379063 1 8.0039062 C 1 11.869806 4.134 15.003906 8 15.003906 C 11.866 15.003906 15 11.869806 15 8.0039062 C 15 4.1379063 11.866 1.0039062 8 1.0039062 z M 7 4.0039062 L 9 4.0039062 L 9 9.0039062 L 7 9.0039062 L 7 4.0039062 z M 8 9.7539062 C 8.69036 9.7539062 9.25 10.313546 9.25 11.003906 C 9.25 11.694266 8.69036 12.253906 8 12.253906 C 7.30964 12.253906 6.75 11.694266 6.75 11.003906 C 6.75 10.313546 7.30964 9.7539062 8 9.7539062 z" style="fill:currentColor"/>
</svg>
